assets/svg/26F5.svg

<svg xmlns="http://www.w3.org/2000/svg" viewBox="0 0 64 64" enable-background="new 0 0 64 64"><path fill="#919090" d="m34.762 50.769c0 1.259-.622 2.279-1.39 2.279l0 0c-.768 0-1.39-1.021-1.39-2.279v-36.675c0-1.258.623-2.28 1.39-2.28l0 0c.768 0 1.39 1.021 1.39 2.28v36.675"/><path fill="#787878" d="m33.406 50.769v-36.675c0-.844.279-1.579.696-1.971-.204-.196-.442-.309-.696-.309-.768 0-1.389 1.021-1.389 2.28v36.674c0 1.259.622 2.279 1.389 2.279.254 0 .492-.112.696-.307-.416-.393-.696-1.129-.696-1.971"/><path fill="#28b473" d="m30.533 44.686c.024-.011.044-.022.064-.038-1.134-8.619-2.892-26.825 2.067-29.386 0 0-10.317.448-19.464 28.27 0-.0001 13.796-4.294 17.333 1.152"/><path fill="#37a06b" d="m32.499 15.15c-1.828.353-10.947 3.331-19.13 28.23 0 0 5.271-1.637 10.132-1.604 1.594-17.907 6.59-24.461 9-26.624"/><path fill="#28b473" d="m36.33 43.735c-.022-.015-.048-.026-.074-.038 1.319-8.654 3.305-26.941-2.887-29.597 0 0 12.825.609 24.5 28.739 0 .0001-17.194-4.528-21.539.896"/><path fill="#37a06b" d="m34.1 14.292c5.342 3.694 3.464 20.897 2.197 29.21.024.013.048.024.072.037 1.681-2.104 5.299-2.711 9.1-2.664-1.555-9.939-5.03-25.949-11.368-26.585"/><path fill="#e8bb85" d="m5.886 43.03c0 0 29.07 8.899 56.86-1.327 0 0 2.057.747.771 2.458 0 0-4.245.955-5.02 4.361-.771 3.41-6.433 10.419-6.433 10.419h-34.522c0 0-6.259-4.733-7.284-11.177l-10.166-6.06 5.79 1.327"/><g fill="#d3aa7d"><path d="m59.659 46.31c1.521-1.632 3.821-2.151 3.821-2.151 1.286-1.711-.772-2.458-.772-2.458-9.09 3.343-18.306 4.643-26.603 4.876 6.682.678 14.87.898 23.554-.267"/><path d="m23.951 48.28l-4.239-2.528c-8.422-1.063-13.862-2.728-13.862-2.728l-5.789-1.327 10.162 6.06c1.03 6.443 7.286 11.177 7.286 11.177h13.1c-1.611-1.394-5.827-5.471-6.655-10.656"/></g><path fill="#5fa8dc" d="m7.396 58.03c.283.152 9.925-8.566 15.771.098 0 0 1.48 1.971 4.02-1.314 2.535-3.286 10.421-6.757 13.24-2.769 0 0 2.754 4.01 4.9 3.359 0 0 7.14-6.586 11.718-1.742 4.575 4.847 2.603 2.368 2.603 2.368l.426 5.971h-52.674v-5.971"/><g fill="#448eb7"><path d="m50.2 58.21c0 0 2.778-2.564 5.979-3.316-3.311-2.403-7.534.007-9.602 1.506.993 1.045 2.407 2.178 3.623 1.81"/><path d="m12.27 58.839c.174.09 3.753-3.048 7.852-3.645-5.645-3.17-12.489 2.959-12.725 2.832v5.971h4.874v-5.158z"/><path d="m28.04 58.936c0 0 1.477 1.97 4.01-1.317 1.446-1.871 4.625-3.798 7.614-4.379-3.271-2.641-10.149.54-12.487 3.568-.15.197-.298.374-.442.535.45.449.887.975 1.303 1.593"/></g></svg>

<?xml version="1.0" encoding="UTF-8" standalone="no"?>
<!-- Generator: Adobe Illustrator 16.0.0, SVG Export Plug-In . SVG Version: 6.00 Build 0)  -->

<svg
   xmlns:dc="http://purl.org/dc/elements/1.1/"
   xmlns:cc="http://creativecommons.org/ns#"
   xmlns:rdf="http://www.w3.org/1999/02/22-rdf-syntax-ns#"
   xmlns:svg="http://www.w3.org/2000/svg"
   xmlns="http://www.w3.org/2000/svg"
   xmlns:sodipodi="http://sodipodi.sourceforge.net/DTD/sodipodi-0.dtd"
   xmlns:inkscape="http://www.inkscape.org/namespaces/inkscape"
   version="1.1"
   id="Layer_1"
   x="0px"
   y="0px"
   width="64px"
   height="64px"
   viewBox="0 0 64 64"
   enable-background="new 0 0 64 64"
   xml:space="preserve"
   inkscape:version="0.48.5 r10040"
   sodipodi:docname="26F5.svg"
   inkscape:export-filename="D:\TESTINGEMOJI\SVGTEST\26F5.png"
   inkscape:export-xdpi="90"
   inkscape:export-ydpi="90"><metadata
   id="metadata4399"><rdf:RDF><cc:Work
       rdf:about=""><dc:format>image/svg+xml</dc:format><dc:type
         rdf:resource="http://purl.org/dc/dcmitype/StillImage" /><dc:title></dc:title></cc:Work></rdf:RDF></metadata><defs
   id="defs4397" /><sodipodi:namedview
   pagecolor="#ffffff"
   bordercolor="#666666"
   borderopacity="1"
   objecttolerance="10"
   gridtolerance="10"
   guidetolerance="10"
   inkscape:pageopacity="0"
   inkscape:pageshadow="2"
   inkscape:window-width="640"
   inkscape:window-height="480"
   id="namedview4395"
   showgrid="false"
   inkscape:zoom="3.6875"
   inkscape:cx="32"
   inkscape:cy="32"
   inkscape:window-x="511"
   inkscape:window-y="220"
   inkscape:window-maximized="0"
   inkscape:current-layer="Layer_1" />
<g
   id="g4339">
	<path
   fill="#919090"
   d="M34.762,50.769c0,1.259-0.622,2.279-1.39,2.279l0,0c-0.768,0-1.39-1.021-1.39-2.279V14.094   c0-1.258,0.623-2.28,1.39-2.28l0,0c0.768,0,1.39,1.021,1.39,2.28V50.769z"
   id="path4341" />
</g>
<g
   id="g4343">
	<path
   fill="#787878"
   d="M33.406,50.769V14.094c0-0.844,0.279-1.579,0.696-1.971c-0.204-0.196-0.442-0.309-0.696-0.309   c-0.768,0-1.389,1.021-1.389,2.28v36.674c0,1.259,0.622,2.279,1.389,2.279c0.254,0,0.492-0.112,0.696-0.307   C33.686,52.347,33.406,51.611,33.406,50.769z"
   id="path4345" />
</g>
<g
   id="g4347">
	<path
   fill="#28B473"
   d="M30.533,44.686c0.024-0.011,0.044-0.022,0.064-0.038c-1.134-8.619-2.892-26.825,2.067-29.386   c0,0-10.317,0.448-19.464,28.272C13.2,43.533,26.996,39.24,30.533,44.686z"
   id="path4349" />
</g>
<g
   id="g4351">
	<path
   fill="#37A06B"
   d="M32.499,15.147c-1.828,0.353-10.947,3.331-19.134,28.228c0,0,5.271-1.637,10.132-1.604   C25.091,23.864,30.087,17.31,32.499,15.147z"
   id="path4353" />
</g>
<g
   id="g4355">
	<path
   fill="#28B473"
   d="M36.333,43.735c-0.022-0.015-0.048-0.026-0.074-0.038c1.319-8.654,3.305-26.941-2.887-29.597   c0,0,12.825,0.609,24.5,28.739C57.872,42.84,40.678,38.311,36.333,43.735z"
   id="path4357" />
</g>
<g
   id="g4359">
	<path
   fill="#37A06B"
   d="M34.103,14.292c5.342,3.694,3.464,20.897,2.197,29.212c0.024,0.013,0.048,0.024,0.072,0.037   c1.681-2.104,5.299-2.711,9.099-2.664C43.916,30.938,40.444,14.928,34.103,14.292z"
   id="path4361" />
</g>
<g
   id="g4363">
	<path
   fill="#E8BB85"
   d="M5.886,43.026c0,0,29.074,8.899,56.86-1.327c0,0,2.057,0.747,0.771,2.458c0,0-4.245,0.955-5.016,4.361   c-0.771,3.41-6.433,10.419-6.433,10.419H17.546c0,0-6.259-4.733-7.284-11.177L0.096,41.699L5.886,43.026z"
   id="path4365" />
</g>
<g
   id="g4367">
	<g
   id="g4369">
		<path
   fill="#D3AA7D"
   d="M59.659,46.309c1.521-1.632,3.821-2.151,3.821-2.151c1.286-1.711-0.772-2.458-0.772-2.458    c-9.085,3.343-18.306,4.643-26.603,4.876C42.787,47.254,50.975,47.474,59.659,46.309z"
   id="path4371" />
	</g>
	<g
   id="g4373">
		<path
   fill="#D3AA7D"
   d="M23.951,48.282l-4.239-2.528C11.29,44.691,5.85,43.026,5.85,43.026l-5.789-1.327l10.162,6.062    c1.03,6.443,7.286,11.177,7.286,11.177h13.097C28.995,57.544,24.779,53.467,23.951,48.282z"
   id="path4375" />
	</g>
</g>
<g
   id="g4377">
	<path
   fill="#5FA8DC"
   d="M7.396,58.027c0.283,0.152,9.925-8.566,15.771,0.098c0,0,1.48,1.971,4.016-1.314   c2.535-3.286,10.421-6.757,13.24-2.769c0,0,2.754,4.008,4.9,3.359c0,0,7.14-6.586,11.718-1.742   c4.575,4.847,2.603,2.368,2.603,2.368l0.426,5.971H7.396V58.027z"
   id="path4379" />
</g>
<g
   id="g4381">
	<g
   id="g4383">
		<path
   fill="#448EB7"
   d="M50.195,58.213c0,0,2.778-2.564,5.979-3.316c-3.311-2.403-7.534,0.007-9.602,1.506    C47.565,57.448,48.979,58.581,50.195,58.213z"
   id="path4385" />
	</g>
	<g
   id="g4387">
		<path
   fill="#448EB7"
   d="M12.27,58.839c0.174,0.09,3.753-3.048,7.852-3.645c-5.645-3.17-12.489,2.959-12.725,2.832v5.971h4.874    V58.839z"
   id="path4389" />
	</g>
	<g
   id="g4391">
		<path
   fill="#448EB7"
   d="M28.042,58.936c0,0,1.477,1.97,4.012-1.317c1.446-1.871,4.625-3.798,7.614-4.379    c-3.271-2.641-10.149,0.54-12.487,3.568c-0.15,0.197-0.298,0.374-0.442,0.535C27.189,57.792,27.626,58.318,28.042,58.936z"
   id="path4393" />
	</g>
</g>
</svg>
